src/images/svg/planes.svg

<svg width="455" height="166" viewBox="0 0 455 166" fill="none" xmlns="http://www.w3.org/2000/svg">
<path fill-rule="evenodd" clip-rule="evenodd" d="M304.96 144.782L401.009 129.058L314.794 157.57C314.248 157.751 313.648 157.547 313.324 157.072L304.96 144.782Z" fill="url(#paint0_linear)"/>
<path d="M401.009 129.058L304.96 144.782M401.009 129.058L296.531 119.921M401.009 129.058L300.897 118.775M401.009 129.058L314.028 108.935M401.009 129.058L314.794 157.57M304.96 144.782L313.324 157.072M304.96 144.782L283.746 148.255M275.794 142.734L295.45 120.355M275.794 142.734C275.237 143.368 275.43 144.358 276.185 144.736M275.794 142.734L275.548 143.015C275.115 143.507 275.265 144.275 275.85 144.568L276.185 144.736M295.45 120.355C295.721 120.046 296.122 119.885 296.531 119.921M295.45 120.355L295.547 120.245C295.757 120.006 296.068 119.881 296.385 119.908L296.531 119.921M300.897 118.775C299.652 118.648 299.301 116.999 300.386 116.376M300.897 118.775L300.005 118.684C299.04 118.585 298.767 117.306 299.609 116.822L300.386 116.376M300.386 116.376L313.096 109.073M313.096 109.073C313.378 108.911 313.711 108.862 314.028 108.935M313.096 109.073L313.194 109.017C313.413 108.891 313.671 108.853 313.918 108.91L314.028 108.935M314.794 157.57C314.248 157.751 313.648 157.547 313.324 157.072M314.794 157.57L314.587 157.639C314.163 157.779 313.698 157.621 313.447 157.252L313.324 157.072M283.746 148.255C283.478 148.299 283.203 148.257 282.96 148.135M283.746 148.255L283.653 148.27C283.445 148.304 283.232 148.272 283.043 148.177L282.96 148.135M282.96 148.135L276.185 144.736" stroke="white" stroke-width="2"/>
<path fill-rule="evenodd" clip-rule="evenodd" d="M401.457 27.1063L449.107 19.3055L406.335 33.4505C406.064 33.5402 405.767 33.4393 405.606 33.2032L401.457 27.1063Z" fill="url(#paint1_linear)"/>
<path d="M449.107 19.3055L401.457 27.1063M449.107 19.3055L397.275 14.7725M449.107 19.3055L399.441 14.2041M449.107 19.3055L405.955 9.32233M449.107 19.3055L406.335 33.4505M401.457 27.1063L405.606 33.2032M401.457 27.1063L390.932 28.8293M386.987 26.0899L396.739 14.9876M386.987 26.0899C386.711 26.4046 386.807 26.8956 387.181 27.0835M386.987 26.0899V26.0899C386.711 26.4046 386.807 26.8956 387.181 27.0835V27.0835M396.739 14.9876C396.873 14.8347 397.072 14.7548 397.275 14.7725M396.739 14.9876V14.9876C396.873 14.8347 397.072 14.7548 397.275 14.7725V14.7725M399.441 14.2041C398.823 14.1407 398.649 13.3229 399.188 13.0136M399.441 14.2041V14.2041C398.823 14.1407 398.649 13.3229 399.188 13.0136V13.0136M399.188 13.0136L405.493 9.39088M405.493 9.39088C405.633 9.31042 405.798 9.28593 405.955 9.32233M405.493 9.39088V9.39088C405.633 9.31042 405.798 9.28593 405.955 9.32233V9.32233M406.335 33.4505C406.064 33.5402 405.767 33.4393 405.606 33.2032M406.335 33.4505V33.4505C406.064 33.5402 405.767 33.4393 405.606 33.2032V33.2032M390.932 28.8293C390.799 28.851 390.663 28.8302 390.542 28.7698M390.932 28.8293V28.8293C390.799 28.851 390.663 28.8302 390.542 28.7698V28.7698M390.542 28.7698L387.181 27.0835" stroke="white" stroke-width="2"/>
<path fill-rule="evenodd" clip-rule="evenodd" d="M178.187 77.6066L274.236 61.8826L188.021 90.3947C187.475 90.5754 186.875 90.3719 186.551 89.8961L178.187 77.6066Z" fill="url(#paint2_linear)"/>
<path d="M274.236 61.8826L178.187 77.6066M274.236 61.8826L169.758 52.7456M274.236 61.8826L174.124 51.5999M274.236 61.8826L187.255 41.7596M274.236 61.8826L188.021 90.3947M178.187 77.6066L186.551 89.8961M178.187 77.6066L156.973 81.0796M149.021 75.558L168.677 53.179M149.021 75.558C148.464 76.1923 148.657 77.182 149.412 77.5606M149.021 75.558L148.775 75.8391C148.342 76.3312 148.492 77.0991 149.077 77.3928L149.412 77.5606M168.677 53.179C168.948 52.8708 169.349 52.7098 169.758 52.7456M168.677 53.179L168.774 53.0691C168.984 52.83 169.295 52.7051 169.612 52.7328L169.758 52.7456M174.124 51.5999C172.879 51.472 172.528 49.8236 173.613 49.2001M174.124 51.5999L173.232 51.5083C172.267 51.4091 171.995 50.1302 172.836 49.6465L173.613 49.2001M173.613 49.2001L186.323 41.8978M186.323 41.8978C186.605 41.7356 186.938 41.6863 187.255 41.7596M186.323 41.8978L186.421 41.8412C186.64 41.7154 186.899 41.6771 187.145 41.734L187.255 41.7596M188.021 90.3947C187.475 90.5754 186.875 90.3719 186.551 89.8961M188.021 90.3947L187.814 90.4631C187.39 90.6033 186.925 90.4455 186.674 90.0763L186.551 89.8961M156.973 81.0796C156.705 81.1235 156.43 81.0815 156.187 80.9597M156.973 81.0796L156.881 81.0947C156.672 81.1288 156.459 81.0962 156.271 81.0017L156.187 80.9597M156.187 80.9597L149.412 77.5606" stroke="white" stroke-width="2"/>
<path d="M1.0001 78.0195C3.89807 73.7842 12.0122 65.0154 21.2848 63.8233" stroke="white" stroke-width="2"/>
<path d="M35.718 61.9056C42.6732 62.1947 57.4736 62.5364 61.034 61.5905" stroke="white" stroke-width="2"/>
<path d="M69.918 56.5918C72.978 54.6005 79.0065 49.7361 78.6405 46.2092" stroke="white" stroke-width="2"/>
<path d="M81.027 35.6229C80.9215 31.7791 79.0109 23.513 72.2131 21.1995" stroke="white" stroke-width="2"/>
<path d="M65.3913 18.0073C61.9292 17.6757 53.9961 18.3613 49.9608 23.7562" stroke="white" stroke-width="2"/>
<path d="M45.0606 30.3264C43.236 34.1405 43.131 43.4298 48.4236 49.0515" stroke="white" stroke-width="2"/>
<path d="M68.9926 69.3218C74.3171 71.7779 89.5951 71.584 97.6392 66.9809" stroke="white" stroke-width="2"/>
<path d="M105.876 59.0967C108.672 55.5507 116.468 48.9412 125.281 50.8723" stroke="white" stroke-width="2"/>
<path d="M136.587 51.9591C145.292 53.6056 151.933 54.2444 162.607 50.8786" stroke="white" stroke-width="2"/>
<defs>
<linearGradient id="paint0_linear" x1="332.244" y1="105.446" x2="340.826" y2="153.013" gradientUnits="userSpaceOnUse">
<stop offset="0.625" stop-color="white" stop-opacity="0"/>
<stop offset="1" stop-color="white"/>
</linearGradient>
<linearGradient id="paint1_linear" x1="414.993" y1="7.59117" x2="419.25" y2="31.1896" gradientUnits="userSpaceOnUse">
<stop offset="0.625" stop-color="white" stop-opacity="0"/>
<stop offset="1" stop-color="white"/>
</linearGradient>
<linearGradient id="paint2_linear" x1="205.471" y1="38.2701" x2="214.053" y2="85.8373" gradientUnits="userSpaceOnUse">
<stop offset="0.625" stop-color="white" stop-opacity="0"/>
<stop offset="1" stop-color="white"/>
</linearGradient>
</defs>
</svg>

<svg width="455" height="166" fill="none" xmlns="http://www.w3.org/2000/svg"><path fill-rule="evenodd" clip-rule="evenodd" d="M304.96 144.782l96.049-15.724-86.215 28.512a1.29 1.29 0 01-1.47-.498l-8.364-12.29z" fill="url(#paint0_linear)"/><path d="M401.009 129.058l-96.049 15.724m96.049-15.724l-104.478-9.137m104.478 9.137l-100.112-10.283m100.112 10.283l-86.981-20.123m86.981 20.123l-86.215 28.512m-9.834-12.788l8.364 12.29m-8.364-12.29l-21.214 3.473m-7.952-5.521l19.656-22.379m-19.656 22.379a1.288 1.288 0 00.391 2.002m-.391-2.002l-.246.281a.999.999 0 00.302 1.553l.335.168m19.265-24.381c.271-.309.672-.47 1.081-.434m-1.081.434l.097-.11c.21-.239.521-.364.838-.337l.146.013m4.366-1.146c-1.245-.127-1.596-1.776-.511-2.399m.511 2.399l-.892-.091c-.965-.099-1.238-1.378-.396-1.862l.777-.446m0 0l12.71-7.303m0 0a1.29 1.29 0 01.932-.138m-.932.138l.098-.056a1 1 0 01.724-.107l.11.025m.766 48.635a1.29 1.29 0 01-1.47-.498m1.47.498l-.207.069a1 1 0 01-1.14-.387l-.123-.18m-29.578-8.817a1.287 1.287 0 01-.786-.12m.786.12l-.093.015a.998.998 0 01-.61-.093l-.083-.042m0 0l-6.775-3.399" stroke="#fff" stroke-width="2"/><path fill-rule="evenodd" clip-rule="evenodd" d="M401.457 27.106l47.65-7.8-42.772 14.144a.639.639 0 01-.729-.247l-4.149-6.097z" fill="url(#paint1_linear)"/><path d="M449.107 19.305l-47.65 7.801m47.65-7.8l-51.832-4.534m51.832 4.533l-49.666-5.1m49.666 5.1l-43.152-9.983m43.152 9.983L406.335 33.45m-4.878-6.344l4.149 6.097m-4.149-6.097l-10.525 1.723m-3.945-2.74l9.752-11.101m-9.752 11.102a.64.64 0 00.194.994m-.194-.994v0a.64.64 0 00.194.994v0m9.558-12.096a.639.639 0 01.536-.215m-.536.215v0a.639.639 0 01.536-.215v0m2.166-.569c-.618-.063-.792-.881-.253-1.19m.253 1.19v0c-.618-.063-.792-.881-.253-1.19v0m0 0l6.305-3.623m0 0a.638.638 0 01.462-.069m-.462.069v0a.638.638 0 01.462-.069v0m.38 24.128a.639.639 0 01-.729-.247m.729.247v0a.639.639 0 01-.729-.247v0m-14.674-4.374a.64.64 0 01-.39-.06m.39.06v0a.64.64 0 01-.39-.06v0m0 0l-3.361-1.685" stroke="#fff" stroke-width="2"/><path fill-rule="evenodd" clip-rule="evenodd" d="M178.187 77.607l96.049-15.724-86.215 28.512a1.289 1.289 0 01-1.47-.499l-8.364-12.29z" fill="url(#paint2_linear)"/><path d="M274.236 61.883l-96.049 15.724m96.049-15.724l-104.478-9.137m104.478 9.137L174.124 51.6m100.112 10.283L187.255 41.76m86.981 20.123l-86.215 28.512m-9.834-12.788l8.364 12.29m-8.364-12.29l-21.214 3.473m-7.952-5.522l19.656-22.379m-19.656 22.379a1.289 1.289 0 00.391 2.003m-.391-2.003l-.246.281a1 1 0 00.302 1.554l.335.168m19.265-24.382a1.29 1.29 0 011.081-.433m-1.081.433l.097-.11a1 1 0 01.838-.336l.146.013m4.366-1.146c-1.245-.128-1.596-1.776-.511-2.4m.511 2.4l-.892-.092c-.965-.099-1.237-1.378-.396-1.861l.777-.447m0 0l12.71-7.302m0 0c.282-.162.615-.212.932-.138m-.932.138l.098-.057c.219-.126.478-.164.724-.107l.11.026m.766 48.635a1.289 1.289 0 01-1.47-.499m1.47.499l-.207.068a.999.999 0 01-1.14-.387l-.123-.18m-29.578-8.816a1.289 1.289 0 01-.786-.12m.786.12l-.092.015a.998.998 0 01-.61-.093l-.084-.042m0 0l-6.775-3.4M1 78.02c2.898-4.236 11.012-13.005 20.285-14.197M35.718 61.906c6.955.289 21.756.63 25.316-.316M69.918 56.592c3.06-1.992 9.088-6.856 8.722-10.383M81.027 35.623c-.106-3.844-2.016-12.11-8.814-14.423M65.391 18.007c-3.462-.331-11.395.354-15.43 5.75M45.06 30.326c-1.824 3.815-1.929 13.104 3.364 18.725M68.993 69.322c5.324 2.456 20.602 2.262 28.646-2.341M105.876 59.097c2.796-3.546 10.592-10.156 19.405-8.225M136.587 51.96c8.705 1.646 15.346 2.284 26.02-1.081" stroke="#fff" stroke-width="2"/><defs><linearGradient id="paint0_linear" x1="332.244" y1="105.446" x2="340.826" y2="153.013" gradientUnits="userSpaceOnUse"><stop offset=".625" stop-color="#fff" stop-opacity="0"/><stop offset="1" stop-color="#fff"/></linearGradient><linearGradient id="paint1_linear" x1="414.993" y1="7.591" x2="419.25" y2="31.19" gradientUnits="userSpaceOnUse"><stop offset=".625" stop-color="#fff" stop-opacity="0"/><stop offset="1" stop-color="#fff"/></linearGradient><linearGradient id="paint2_linear" x1="205.471" y1="38.27" x2="214.053" y2="85.837" gradientUnits="userSpaceOnUse"><stop offset=".625" stop-color="#fff" stop-opacity="0"/><stop offset="1" stop-color="#fff"/></linearGradient></defs></svg>
